packages/ui-icons/svg/Solid/github.svg

<svg viewBox="0 0 1920 1920" version="1.1" xmlns="http://www.w3.org/2000/svg">
    <path d="M1821.62933,637.76 C1821.62933,507.733333 1778.00267,401.386667 1705.576,318.08 C1717.20267,287.893333 1755.92267,166.72 1694.376,2.77333333 C1694.376,2.77333333 1599.656,-29.2266667 1383.976,124.906667 C1293.84267,98.4533333 1197.20267,85.2266667 1101.20267,84.8 C1005.20267,85.2266667 908.562667,98.4533333 818.536,124.906667 C602.749333,-29.2266667 507.922667,2.77333333 507.922667,2.77333333 C446.376,166.72 485.202667,287.893333 496.829333,318.08 C424.509333,401.386667 380.562667,507.733333 380.562667,637.76 C380.562667,1094.29333 644.242667,1196.48 895.016,1226.56 C895.016,1226.56 714.749333,1338.24 714.749333,1525.97333 C650.429333,1556.48 378.216,1649.92 277.416,1467.84 C277.416,1467.84 217.789333,1353.49333 104.402667,1345.06667 C104.402667,1345.06667 -5.89066667,1343.57333 96.616,1417.49333 C96.616,1417.49333 170.642667,1454.18667 222.056,1591.78667 C222.056,1591.78667 279.229333,1881.70667 711.122667,1751.46667 C715.496,1753.70667 712.722667,1891.73333 712.722667,1920 L1489.896,1920 C1489.896,1920 1491.176,1642.98667 1491.176,1554.88 C1491.176,1338.24 1346.536,1262.4 1305.896,1225.6 C1557.52267,1196.16 1821.62933,1095.46667 1821.62933,637.76" stroke="none" stroke-width="1" fill-rule="evenodd"/>
</svg>

<svg viewBox="0 0 1920 1920" xmlns="http://www.w3.org/2000/svg">
    <path d="M1821.63 637.76c0-130.027-43.627-236.373-116.054-319.68 11.627-30.187 50.347-151.36-11.2-315.307 0 0-94.72-32-310.4 122.134-90.133-26.454-186.773-39.68-282.773-40.107-96 .427-192.64 13.653-282.667 40.107C602.749-29.227 507.923 2.773 507.923 2.773c-61.547 163.947-22.72 285.12-11.094 315.307-72.32 83.307-116.266 189.653-116.266 319.68 0 456.533 263.68 558.72 514.453 588.8 0 0-180.267 111.68-180.267 299.413-64.32 30.507-336.533 123.947-437.333-58.133 0 0-59.627-114.347-173.013-122.773 0 0-110.294-1.494-7.787 72.426 0 0 74.027 36.694 125.44 174.294 0 0 57.173 289.92 489.067 159.68 4.373 2.24 1.6 140.266 1.6 168.533h777.173s1.28-277.013 1.28-365.12c0-216.64-144.64-292.48-185.28-329.28 251.627-29.44 515.733-130.133 515.733-587.84" fill-rule="evenodd"/>
</svg>
